X: 1
T: the Eternal Surge of the Sea
C: Donald MacIver
B: Ce\`ol nam Feis
R: air, waltz
Z: 2014 John Chambers <jc:trillian.mit.edu>
S: handwritten page from Barbara McOwen in the Concord Slow Scottish Session collection
M: 3/4
L: 1/4
K: G
D |\
"G"B,DG | "G7"B2A | "C"G2E | "C"EGE | "G"D3- | D2D |\
"G7"GAB | "C"c2d | "Am"c2B | "A7"GEG | "D"A3- | "D7"A2 ||
D |\
"G"B,DG | "G7"B2A | "C"G2E | "C"EGE | "G"D3- | D2D |\
"G"DGB | "Em"d2E | "Am"c2E | "D7"D>ED | "G"D3- | G2 |]
